Newaita/actions/22/view-group.svg

<?xml version="1.0" encoding="UTF-8"?>
<svg xmlns="http://www.w3.org/2000/svg" xmlns:xlink="http://www.w3.org/1999/xlink" width="22pt" height="22pt" viewBox="0 0 22 22" version="1.1">
<defs>
<filter id="alpha" filterUnits="objectBoundingBox" x="0%" y="0%" width="100%" height="100%">
  <feColorMatrix type="matrix" in="SourceGraphic" values="0 0 0 0 1 0 0 0 0 1 0 0 0 0 1 0 0 0 1 0"/>
</filter>
<mask id="mask0">
  <g filter="url(#alpha)">
<rect x="0" y="0" width="22" height="22" style="fill:rgb(0%,0%,0%);fill-opacity:0.988235;stroke:none;"/>
  </g>
</mask>
<clipPath id="clip1">
  <rect x="0" y="0" width="22" height="22"/>
</clipPath>
<g id="surface5" clip-path="url(#clip1)">
<path style=" stroke:none;fill-rule:nonzero;fill:rgb(25.882354%,25.882354%,25.882354%);fill-opacity:1;" d="M 3.636719 1.082031 C 2.628906 1.082031 1.820312 1.894531 1.820312 2.902344 L 1.820312 6.539062 C 1.820312 7.546875 2.628906 8.359375 3.636719 8.359375 L 7.277344 8.359375 C 8.285156 8.359375 9.097656 7.546875 9.097656 6.539062 L 9.097656 2.902344 C 9.097656 1.894531 8.285156 1.082031 7.277344 1.082031 Z M 4.09375 2.445312 L 6.820312 2.445312 C 7.324219 2.445312 7.730469 2.851562 7.730469 3.355469 L 7.730469 6.085938 C 7.730469 6.589844 7.324219 6.992188 6.820312 6.992188 L 4.09375 6.992188 C 3.589844 6.992188 3.183594 6.589844 3.183594 6.085938 L 3.183594 3.355469 C 3.183594 2.851562 3.589844 2.445312 4.09375 2.445312 Z M 4.09375 2.445312 "/>
</g>
<mask id="mask1">
  <g filter="url(#alpha)">
<rect x="0" y="0" width="22" height="22" style="fill:rgb(0%,0%,0%);fill-opacity:0.988235;stroke:none;"/>
  </g>
</mask>
<clipPath id="clip2">
  <rect x="0" y="0" width="22" height="22"/>
</clipPath>
<g id="surface8" clip-path="url(#clip2)">
<path style=" stroke:none;fill-rule:nonzero;fill:rgb(100%,43.921569%,26.274511%);fill-opacity:1;" d="M 14.554688 13.816406 C 13.546875 13.816406 12.734375 14.628906 12.734375 15.636719 L 12.734375 19.273438 C 12.734375 20.28125 13.546875 21.09375 14.554688 21.09375 L 18.191406 21.09375 C 19.199219 21.09375 20.011719 20.28125 20.011719 19.273438 L 20.011719 15.636719 C 20.011719 14.628906 19.199219 13.816406 18.191406 13.816406 Z M 15.007812 15.179688 L 17.738281 15.179688 C 18.242188 15.179688 18.648438 15.585938 18.648438 16.089844 L 18.648438 18.820312 C 18.648438 19.324219 18.242188 19.726562 17.738281 19.726562 L 15.007812 19.726562 C 14.503906 19.726562 14.097656 19.324219 14.097656 18.820312 L 14.097656 16.089844 C 14.097656 15.585938 14.503906 15.179688 15.007812 15.179688 Z M 15.007812 15.179688 "/>
</g>
<mask id="mask2">
  <g filter="url(#alpha)">
<rect x="0" y="0" width="22" height="22" style="fill:rgb(0%,0%,0%);fill-opacity:0.988235;stroke:none;"/>
  </g>
</mask>
<clipPath id="clip3">
  <rect x="0" y="0" width="22" height="22"/>
</clipPath>
<g id="surface11" clip-path="url(#clip3)">
<path style=" stroke:none;fill-rule:nonzero;fill:rgb(100%,43.921569%,26.274511%);fill-opacity:1;" d="M 3.636719 13.816406 C 2.628906 13.816406 1.820312 14.628906 1.820312 15.636719 L 1.820312 19.273438 C 1.820312 20.28125 2.628906 21.09375 3.636719 21.09375 L 7.277344 21.09375 C 8.285156 21.09375 9.097656 20.28125 9.097656 19.273438 L 9.097656 15.636719 C 9.097656 14.628906 8.285156 13.816406 7.277344 13.816406 Z M 4.09375 15.179688 L 6.820312 15.179688 C 7.324219 15.179688 7.730469 15.585938 7.730469 16.089844 L 7.730469 18.820312 C 7.730469 19.324219 7.324219 19.726562 6.820312 19.726562 L 4.09375 19.726562 C 3.589844 19.726562 3.183594 19.324219 3.183594 18.820312 L 3.183594 16.089844 C 3.183594 15.585938 3.589844 15.179688 4.09375 15.179688 Z M 4.09375 15.179688 "/>
</g>
<mask id="mask3">
  <g filter="url(#alpha)">
<rect x="0" y="0" width="22" height="22" style="fill:rgb(0%,0%,0%);fill-opacity:0.988235;stroke:none;"/>
  </g>
</mask>
<clipPath id="clip4">
  <rect x="0" y="0" width="22" height="22"/>
</clipPath>
<g id="surface14" clip-path="url(#clip4)">
<path style=" stroke:none;fill-rule:nonzero;fill:rgb(25.882354%,25.882354%,25.882354%);fill-opacity:1;" d="M 14.554688 1.082031 C 13.546875 1.082031 12.734375 1.894531 12.734375 2.902344 L 12.734375 6.539062 C 12.734375 7.546875 13.546875 8.359375 14.554688 8.359375 L 18.191406 8.359375 C 19.199219 8.359375 20.011719 7.546875 20.011719 6.539062 L 20.011719 2.902344 C 20.011719 1.894531 19.199219 1.082031 18.191406 1.082031 Z M 15.007812 2.445312 L 17.738281 2.445312 C 18.242188 2.445312 18.648438 2.851562 18.648438 3.355469 L 18.648438 6.085938 C 18.648438 6.589844 18.242188 6.992188 17.738281 6.992188 L 15.007812 6.992188 C 14.503906 6.992188 14.097656 6.589844 14.097656 6.085938 L 14.097656 3.355469 C 14.097656 2.851562 14.503906 2.445312 15.007812 2.445312 Z M 15.007812 2.445312 "/>
</g>
</defs>
<g id="surface1">
<path style=" stroke:none;fill-rule:nonzero;fill:rgb(25.882354%,25.882354%,25.882354%);fill-opacity:1;" d="M 1.589844 10.40625 L 20.238281 10.40625 C 20.613281 10.40625 20.921875 10.710938 20.921875 11.085938 C 20.921875 11.464844 20.613281 11.769531 20.238281 11.769531 L 1.589844 11.769531 C 1.214844 11.769531 0.910156 11.464844 0.910156 11.085938 C 0.910156 10.710938 1.214844 10.40625 1.589844 10.40625 Z M 1.589844 10.40625 "/>
<use xlink:href="#surface5" mask="url(#mask0)"/>
<use xlink:href="#surface8" mask="url(#mask1)"/>
<use xlink:href="#surface11" mask="url(#mask2)"/>
<use xlink:href="#surface14" mask="url(#mask3)"/>
</g>
</svg>

<svg xmlns="http://www.w3.org/2000/svg" xmlns:xlink="http://www.w3.org/1999/xlink" width="22pt" height="22pt" viewBox="0 0 22 22"><defs><filter id="a" filterUnits="objectBoundingBox" x="0%" y="0%" width="100%" height="100%"><feColorMatrix in="SourceGraphic" values="0 0 0 0 1 0 0 0 0 1 0 0 0 0 1 0 0 0 1 0"/></filter><mask id="g"><path fill-opacity=".988" d="M0 0h22v22H0z" filter="url(#a)"/></mask><clipPath id="b"><path d="M0 0h22v22H0z"/></clipPath><g id="f" clip-path="url(#b)"><path d="M3.637 1.082a1.814 1.814 0 0 0-1.817 1.82V6.54c0 1.008.809 1.82 1.817 1.82h3.64c1.008 0 1.82-.812 1.82-1.82V2.902c0-1.007-.812-1.82-1.82-1.82zm.457 1.363H6.82c.504 0 .91.407.91.91v2.73a.905.905 0 0 1-.91.907H4.094a.905.905 0 0 1-.91-.906v-2.73c0-.504.406-.91.91-.91zm0 0" fill="#424242"/></g><mask id="i"><path fill-opacity=".988" d="M0 0h22v22H0z" filter="url(#a)"/></mask><clipPath id="c"><path d="M0 0h22v22H0z"/></clipPath><g id="h" clip-path="url(#c)"><path d="M14.555 13.816c-1.008 0-1.82.813-1.82 1.82v3.637c0 1.008.812 1.82 1.82 1.82h3.636c1.008 0 1.82-.812 1.82-1.82v-3.636c0-1.008-.812-1.82-1.82-1.82zm.453 1.364h2.73c.504 0 .91.406.91.91v2.73a.905.905 0 0 1-.91.907h-2.73a.905.905 0 0 1-.91-.907v-2.73c0-.504.406-.91.91-.91zm0 0" fill="#ff7043"/></g><mask id="k"><path fill-opacity=".988" d="M0 0h22v22H0z" filter="url(#a)"/></mask><clipPath id="d"><path d="M0 0h22v22H0z"/></clipPath><g id="j" clip-path="url(#d)"><path d="M3.637 13.816a1.814 1.814 0 0 0-1.817 1.82v3.637c0 1.008.809 1.82 1.817 1.82h3.64c1.008 0 1.82-.812 1.82-1.82v-3.636c0-1.008-.812-1.82-1.82-1.82zm.457 1.364H6.82c.504 0 .91.406.91.91v2.73a.905.905 0 0 1-.91.907H4.094a.905.905 0 0 1-.91-.907v-2.73c0-.504.406-.91.91-.91zm0 0" fill="#ff7043"/></g><mask id="m"><path fill-opacity=".988" d="M0 0h22v22H0z" filter="url(#a)"/></mask><clipPath id="e"><path d="M0 0h22v22H0z"/></clipPath><g id="l" clip-path="url(#e)"><path d="M14.555 1.082c-1.008 0-1.82.813-1.82 1.82V6.54c0 1.008.812 1.82 1.82 1.82h3.636c1.008 0 1.82-.812 1.82-1.82V2.902c0-1.007-.812-1.82-1.82-1.82zm.453 1.363h2.73c.504 0 .91.407.91.91v2.73a.905.905 0 0 1-.91.907h-2.73a.905.905 0 0 1-.91-.906v-2.73c0-.504.406-.91.91-.91zm0 0" fill="#424242"/></g></defs><path d="M1.59 10.406h18.648c.375 0 .684.305.684.68a.684.684 0 0 1-.684.684H1.59a.681.681 0 0 1 0-1.364zm0 0" fill="#424242"/><use xlink:href="#f" mask="url(#g)"/><use xlink:href="#h" mask="url(#i)"/><use xlink:href="#j" mask="url(#k)"/><use xlink:href="#l" mask="url(#m)"/></svg>
